RestoDelMundo/Polonia/Otras Categorias/Lks Lodz Ssa.svg

<svg xmlns="http://www.w3.org/2000/svg" viewBox="0 0 612 792"><circle cx="306.576" cy="396.088" r="283.464" fill="#ed1c24" transform="rotate(-45 306.576 396.088)"/><path fill="#fff" d="M254.952 556.144v18.36h158.112v41.688H213.336v-60.048ZM254.952 489.76v7.92h-41.616v-36.36ZM280.728 394.936l-17.352-11.592v-49.968l17.352 11.592ZM330.696 259.36v27.504c18.288-2.376 32.112-9.648 42.192-20.448 12.888-13.752 20.52-33.624 24.048-57.096h41.904c-4.176 34.056-15.408 63.864-35.496 85.392a107 107 0 0 1-13.392 12.096c50.904 26.712 79.92 79.128 81.936 135.072H430.2c-2.16-57.528-41.328-101.736-99.504-111.384V441.88h-41.544V259.36zM289.152 151.432h41.544v49.464h-41.544Z"/><path fill="#fff" d="M160.776 506.104h172.872c11.376 0 22.464-3.312 30.096-9.648 13.248-11.088 10.368-28.368.792-40.68-6.984-8.928-16.128-15.48-25.416-21.744v-49.824l25.848 17.208c11.52 7.704 23.184 17.208 32.256 28.872 23.616 30.24 24.12 72.216-6.84 97.992-15.264 12.816-36.144 19.44-56.736 19.44H141.264zM254.952 296.08v122.976l-41.616-28.296v-94.68Z"/><path fill="#fff" d="m175.608 375.208 105.12 71.64v50.256l-105.12-71.712ZM204.912 344.104l-10.656-7.128c-13.536-9.072-23.472-24.192-27.432-39.888-6.552-26.136 2.304-55.368 23.112-72.72 11.088-9.288 25.344-15.048 42.12-15.048h149.256l-19.296 41.616h-129.96c-18.792 0-27.144 16.92-27.144 33.84z"/></svg>

<svg enable-background="new 0 0 612 792" viewBox="0 0 612 792" xmlns="http://www.w3.org/2000/svg"><ellipse cx="306.576" cy="396.088" fill="#ed1c24" rx="283.464" ry="283.464" transform="matrix(.7071 -.7071 .7071 .7071 -190.2824 332.7935)"/><path d="M 254.952 556.144 L 254.952 574.504 L 413.064 574.504 L 413.064 616.192 L 213.336 616.192 L 213.336 556.144 Z" fill="#fff"/><path d="M 254.952 489.76 L 254.952 497.68 L 213.336 497.68 L 213.336 461.32 Z" fill="#fff"/><path d="M 280.728 394.936 L 263.376 383.344 L 263.376 333.376 L 280.728 344.968 Z" fill="#fff"/><path d="M 330.696 259.36 v 27.504 c 18.288 -2.376 32.112 -9.648 42.192 -20.448 c 12.888 -13.752 20.52 -33.624 24.048 -57.096 h 41.904 c -4.176 34.056 -15.408 63.864 -35.496 85.392 c -4.104 4.392 -8.568 8.424 -13.392 12.096 c 50.904 26.712 79.92 79.128 81.936 135.072 H 430.2 c -2.16 -57.528 -41.328 -101.736 -99.504 -111.384 V 441.88 h -41.544 V 259.36 H 330.696 z" fill="#fff"/><path d="M 289.152 151.432 H 330.696 V 200.896 H 289.152 Z" fill="#fff"/><path d="M 160.776 506.104 h 172.872 c 11.376 0 22.464 -3.312 30.096 -9.648 c 13.248 -11.088 10.368 -28.368 .792 -40.68 c -6.984 -8.928 -16.128 -15.48 -25.416 -21.744 v -49.824 l 25.848 17.208 c 11.52 7.704 23.184 17.208 32.256 28.872 c 23.616 30.24 24.12 72.216 -6.84 97.992 c -15.264 12.816 -36.144 19.44 -56.736 19.44 H 141.264 L 160.776 506.104 z" fill="#fff"/><path d="M 254.952 296.08 L 254.952 419.056 L 213.336 390.76 L 213.336 296.08 Z" fill="#fff"/><path d="M 175.608 375.208 L 280.728 446.848 L 280.728 497.104 L 175.608 425.392 Z" fill="#fff"/><path d="M 204.912 344.104 l -10.656 -7.128 c -13.536 -9.072 -23.472 -24.192 -27.432 -39.888 c -6.552 -26.136 2.304 -55.368 23.112 -72.72 c 11.088 -9.288 25.344 -15.048 42.12 -15.048 h 149.256 l -19.296 41.616 h -129.96 c -18.792 0 -27.144 16.92 -27.144 33.84 V 344.104 z" fill="#fff"/></svg>
